X: 4613
T: Bourrée
R: barndance
M: 4/4
K: Eminor
ef|g2 gf/e/ ^d2ef|{d}B2^c^d e2- e=d/=c/|{d}B2{d}BA/G/ F2GA|{B}BA GF E Bef|
g2 gf/e/ ^d2ef|B^c-^c^d e2 e=d/=c/|B2 BA/G/ JF3G|{B}G6|
ef|{a}g2 gf/e/ ^d2ef|B^c-{d}^c^d e2- e=d/=c/|B2BA/G/ F2GA|{B}BA GF E Bef|
g2 {a}gf/e/ ^d2ef|B^c-^c^d e2 e=d/=c/|{d}B2 BA/G/ TF3G|{B}G6|
{c}BG|d2Ac B~g2d|e2Bd c2BA|^G2AB c{G}cBA|{d}A4-A2dA|
{c}B~g2d e2Bd|^ceae ~f2^ce|dd^cB ^A3 B|B4-B fbf|
~^g2fe a2e=g|~f2ed g2d=f|e~a2e f2^ce|^d2B2 B2 eB|
c2 dA B2cG|A2BF G2 FE|^D2EF ~G2 FE|E6|

